icon/fa/person-walking-arrow-loop-left.svg

<svg xmlns="http://www.w3.org/2000/svg" viewBox="0 0 640 512"><!--! Font Awesome Free 6.1.2 by @fontawesome - https://fontawesome.com License - https://fontawesome.com/license/free (Icons: CC BY 4.0, Fonts: SIL OFL 1.1, Code: MIT License) Copyright 2022 Fonticons, Inc.--><path d="M160 48c0-26.51 21.5-48 48-48s48 21.49 48 48-21.5 48-48 48-48-21.49-48-48zm-47.3 157.4c-15.29 6.8-27.28 19.2-33.48 34.7l-1.51 3.8c-6.56 16.4-25.18 24.4-41.59 17.8-16.41-6.6-24.39-25.2-17.83-41.6l1.51-3.8c12.39-30.9 36.38-55.8 66.86-69.4l11-4.9c20.84-9.2 42.44-14 66.04-14 44.6 0 84.8 26.8 101.9 67.9l14.5 36.8 22.2 10.7c15.8 7.9 22.2 27.1 14.3 42.9-7.9 15.8-27.1 22.2-42.9 14.3L247 287.3c-10.3-5.2-18.4-13.9-22.8-24.5l-9.6-23-19.3 65.5 49.5 54.1c5.4 5.9 9.3 13 11.2 20.8l23 92c4.3 17.2-6.1 34.6-23.2 38.8-17.2 4.3-34.6-6.1-39.7-23.2l-21.2-88.2-70.6-77.1c-14.8-16.1-21.2-38.6-14.7-59.7l16.9-63.5c-.9.4-1.9.8-2.8 1.2l-11 4.9zm-12 138.8 40.7 44.4-14.5 36.2c-2.4 6.1-6 11.6-10.6 16.1l-61.67 61.7c-12.5 12.5-32.76 12.5-45.258 0-12.496-12.5-12.496-32.7 0-45.2L68.73 398l24.96-62.4c2.15 3 4.48 5.8 7.01 8.6zm260.7 30.4c-12.5-12.5-12.5-32.7 0-45.2l80-80c12.5-12.5 32.7-12.5 45.2 0s12.5 32.7 0 45.2L461.3 320H480c53 0 96-43 96-96 0-53.9-43-96-96-96H352c-17.7 0-32.9-14.3-32.9-32 0-17.67 15.2-32 32.9-32h128c88.4 0 160 71.6 160 160s-71.6 160-160 160h-18.7l25.3 25.4c12.5 12.5 12.5 32.7 0 45.2s-32.7 12.5-45.2 0l-80-80z"/></svg>

<svg xmlns="http://www.w3.org/2000/svg" viewBox="0 0 640 512" height="1em" width="1em">
<!--! Font Awesome Free 6.1.2 by @fontawesome - https://fontawesome.com License - https://fontawesome.com/license/free (Icons: CC BY 4.0, Fonts: SIL OFL 1.1, Code: MIT License) Copyright 2022 Fonticons, Inc.-->
  <path d="M160 48C160 21.49 181.5 0 208 0C234.5 0 256 21.49 256 48C256 74.51 234.5 96 208 96C181.5 96 160 74.51 160 48V48zM112.7 205.4C97.41 212.2 85.42 224.6 79.22 240.1L77.71 243.9C71.15 260.3 52.53 268.3 36.12 261.7C19.71 255.1 11.73 236.5 18.29 220.1L19.8 216.3C32.19 185.4 56.18 160.5 86.66 146.9L97.66 142C118.5 132.8 140.1 128 163.7 128C208.3 128 248.5 154.8 265.6 195.9L280.1 232.7L302.3 243.4C318.1 251.3 324.5 270.5 316.6 286.3C308.7 302.1 289.5 308.5 273.7 300.6L247 287.3C236.7 282.1 228.6 273.4 224.2 262.8L214.6 239.8L195.3 305.3L244.8 359.4C250.2 365.3 254.1 372.4 256 380.2L279 472.2C283.3 489.4 272.9 506.8 255.8 511C238.6 515.3 221.2 504.9 216.1 487.8L194.9 399.6L124.3 322.5C109.5 306.4 103.1 283.9 109.6 262.8L126.5 199.3C125.6 199.7 124.6 200.1 123.7 200.5L112.7 205.4zM100.7 344.2L141.4 388.6L126.9 424.8C124.5 430.9 120.9 436.4 116.3 440.9L54.63 502.6C42.13 515.1 21.87 515.1 9.372 502.6C-3.124 490.1-3.124 469.9 9.372 457.4L68.73 398L93.69 335.6C95.84 338.6 98.17 341.4 100.7 344.2H100.7zM361.4 374.6C348.9 362.1 348.9 341.9 361.4 329.4L441.4 249.4C453.9 236.9 474.1 236.9 486.6 249.4C499.1 261.9 499.1 282.1 486.6 294.6L461.3 320H480C533 320 576 277 576 224C576 170.1 533 128 480 128H352C334.3 128 319.1 113.7 319.1 96C319.1 78.33 334.3 64 352 64H480C568.4 64 640 135.6 640 224C640 312.4 568.4 384 480 384H461.3L486.6 409.4C499.1 421.9 499.1 442.1 486.6 454.6C474.1 467.1 453.9 467.1 441.4 454.6L361.4 374.6z"/>
</svg>
